dist/svg/u1F6E5.svg

<?xml version="1.0" encoding="UTF-8"?><svg id="Layer_1" xmlns="http://www.w3.org/2000/svg" viewBox="0 0 40 40"><rect y="0" width="40" height="40" transform="translate(40 40) rotate(-180)" style="fill:none;"/><g><path d="M24.02552,8.43378l2.8298,11.22876-25.35531-.24643V9.50473c0-2.42036,1.96209-4.38245,4.38245-4.38245h13.89349c2.00787,0,3.75891,1.3645,4.24958,3.3115Z" style="fill:#d0d6de;"/><path d="M24.71957,11.18783l2.13574,8.47471h-10.01675v-6.28349c0-1.21018,.98104-2.19122,2.19122-2.19122h5.68979Z" style="fill:#4b596a;"/><g><path d="M3.69122,34.87772H29.10852c.78285,0,1.50623-.41764,1.89766-1.09561l7.02911-12.17477H1.5v11.07916c0,1.21018,.98104,2.19122,2.19122,2.19122Z" style="fill:#e1e5e8;"/><path d="M1.5,19.41611v2.19122H38.03528l.31628-.54778c.42173-.73041-.10539-1.64345-.94881-1.64345H1.5Z" style="fill:#e32939;"/></g><polygon points="35.50508 25.98978 1.5 25.98978 1.5 23.79856 36.77018 23.79856 35.50508 25.98978" style="fill:#2f81f9;"/></g></svg>

<svg id="Layer_1" data-name="Layer 1" xmlns="http://www.w3.org/2000/svg" viewBox="0 0 40 40"><defs><style>.cls-1{fill:none;}.cls-2{fill:#d0d6de;}.cls-3{fill:#4b596a;}.cls-4{fill:#e1e5e8;}.cls-5{fill:#e32939;}.cls-6{fill:#2f81f9;}</style></defs><rect class="cls-1" width="40" height="40" transform="translate(40 40) rotate(-180)"/><path class="cls-2" d="M24.026,8.434l2.829,11.229L1.5,19.416V9.505A4.382,4.382,0,0,1,5.882,5.122H19.776A4.384,4.384,0,0,1,24.026,8.434Z"/><path class="cls-3" d="M24.72,11.188l2.135,8.475H16.839V13.379a2.191,2.191,0,0,1,2.191-2.191Z"/><path class="cls-4" d="M3.691,34.878H29.109a2.191,2.191,0,0,0,1.9-1.1l7.029-12.175H1.5V32.686A2.191,2.191,0,0,0,3.691,34.878Z"/><path class="cls-5" d="M1.5,19.416v2.191H38.035l.317-.547a1.1,1.1,0,0,0-.949-1.644Z"/><polygon class="cls-6" points="35.505 25.99 1.5 25.99 1.5 23.799 36.77 23.799 35.505 25.99"/></svg>
